X: 158
T: the Maids Delight
B: 204 Favourite Country Dances
N: Published by Straight & Skillern, London ca.1775
F: http://imslp.org/wiki/204_Favourite_Country_Dances_(Various) p.79 #158
Z: 2014 John Chambers <jc:trillian.mit.edu>
M: 2/4
L: 1/16
K: A
% - - - - - - - - - - - - - - - - - - - - - - - - -
|:\
a2e2a2e2 | cde2 c2A2 | E2A2E2B2 | cdcB A2E2 |\
a2e2a2e2 | cde2 c2A2 | E2B2 c2dB | A4 A,4 :|
|:\
e2cd e2dc | d2f2 b4 | d2Bc d2cB | c2e2 a4 |\
A2cB A2E2 | B2dc B2E2 | c2e2 E2G2 | A4 A,4 :|
% - - - - - - - - - - - - - - - - - - - - - - - - -
%%begintext align
%% 1st Man set & turn the 3d Wo. 1st Wo.
%% set & turn the 2d Man at the same
%% time .| 1st Man set & turn the 2d Wo.
%% 1st Wo set & turn the 3d Man at the same
%% time |. Hands 6 quite round .||
%%endtext

%%sep 1 1 500
%%sep 1 1 500
